X:237
M:6/4
L:1/4
K:Bb
G A | B2 B2 c B | A2 A2 B A | G2 A2 G ^F | G4 G A | B2 B2 c B | A2 A2 B A | G2 A2 G ^F | G4 B c | d2 d2 e d | c2 c2 d c | B2 B2 c B | A4 G ^F | G2 B2 A G | A2 A2 !sintro!B A | G2 A2 G ^F | G4 !eintro!|]
